usr/share/icons/biglinux-icons-material/scalable/mimetypes/text-x-vala.svg

<svg width="24" height="24" viewBox="0 0 24 24" fill="none" xmlns="http://www.w3.org/2000/svg">
<rect x="1" y="1" width="22" height="22" rx="6.6" fill="url(#paint0_radial_21_2191)"/>
<path d="M9.69632 20L9.34097 5.42696C8.30724 5.80196 7.49964 6.38877 6.91815 7.18738C6.34384 7.98598 6.05669 8.97903 6.05669 10.1665C6.05669 10.4374 6.07104 10.6596 6.09976 10.8332C6.13565 10.9999 6.17155 11.1353 6.20744 11.2395C6.24334 11.3367 6.27564 11.4131 6.30435 11.4686C6.34025 11.5242 6.3582 11.5728 6.3582 11.6145C5.97772 11.6145 5.64033 11.5798 5.34602 11.5103C5.05169 11.4339 4.80402 11.3159 4.60302 11.1561C4.40919 10.9964 4.25843 10.7846 4.15076 10.5207C4.05025 10.2568 4 9.93046 4 9.54159C4 9.06937 4.10409 8.6041 4.31228 8.14579C4.52764 7.68747 4.81839 7.25345 5.18451 6.84373C5.55781 6.43401 5.99213 6.05553 6.48748 5.70831C6.99 5.36109 7.52482 5.06249 8.09194 4.8125C8.66625 4.55556 9.26208 4.35764 9.87945 4.21875C10.504 4.07292 11.1249 4 11.7423 4C11.9074 4 12.0582 4.00347 12.1946 4.01042C12.3381 4.01736 12.4817 4.02778 12.6253 4.04167L12.8191 17.1665L17.4602 4.10384H19L12.8729 19.9995L9.69632 20Z" fill="#7839B7"/>
<defs>
<radialGradient id="paint0_radial_21_2191" cx="0" cy="0" r="1" gradientUnits="userSpaceOnUse" gradientTransform="translate(17.5 1) rotate(116.565) scale(24.5967)">
<stop stop-color="#F4F4F4"/>
<stop offset="1" stop-color="#BBBBBB"/>
</radialGradient>
</defs>
</svg>

<svg xmlns="http://www.w3.org/2000/svg" width="24" height="24" fill="none"><rect width="22" height="22" x="1" y="1" fill="url(#a)" rx="6.6"/><path fill="#7839B7" d="M9.696 20 9.341 5.427c-1.034.375-1.841.962-2.423 1.76-.574.799-.861 1.792-.861 2.98 0 .27.014.493.043.666.036.167.072.302.107.406.036.098.069.174.097.23a.28.28 0 0 1 .054.146c-.38 0-.718-.035-1.012-.105a1.974 1.974 0 0 1-.743-.354 1.575 1.575 0 0 1-.452-.635C4.05 10.257 4 9.93 4 9.54c0-.472.104-.937.312-1.395.216-.459.506-.893.873-1.302.373-.41.807-.788 1.302-1.136a9.693 9.693 0 0 1 1.605-.896 9.439 9.439 0 0 1 1.787-.593 8.17 8.17 0 0 1 2.316-.209c.143.007.287.018.43.032l.194 13.124L17.46 4.104H19L12.873 20H9.696Z"/><defs><radialGradient id="a" cx="0" cy="0" r="1" gradientTransform="rotate(116.565 8.441 5.908) scale(24.5967)" gradientUnits="userSpaceOnUse"><stop stop-color="#F4F4F4"/><stop offset="1" stop-color="#BBB"/></radialGradient></defs></svg>
